images/modal-icon.svg

<svg aria-hidden="true" style="position: absolute; width: 0; height: 0; overflow: hidden;" version="1.1" xmlns="http://www.w3.org/2000/svg" xmlns:xlink="http://www.w3.org/1999/xlink">
<defs>
<symbol id="icon-icon-fly" viewBox="0 0 32 32">
<path fill="#fff" style="fill: var(--color1, #fff)" d="M32 2.667l-32 15 10.227 3.156 15.773-12.323-11.998 13.488 0.010 0.003-0.012-0.003v7.345l5.735-5.576 7.265 2.242 5-23.333z"></path>
</symbol>
<symbol id="icon-email" viewBox="0 0 32 32">
<path d="M28 4h-24c-1.65 0-2.985 1.35-2.985 3l-0.015 18c0 1.65 1.35 3 3 3h24c1.65 0 3-1.35 3-3v-18c0-1.65-1.35-3-3-3zM27.4 10.375l-10.605 6.63c-0.48 0.3-1.11 0.3-1.59 0l-10.605-6.63c-0.375-0.24-0.6-0.645-0.6-1.080 0-1.005 1.095-1.605 1.95-1.080l10.050 6.285 10.050-6.285c0.855-0.525 1.95 0.075 1.95 1.080 0 0.435-0.225 0.84-0.6 1.080z"></path>
</symbol>
<symbol id="icon-tel" viewBox="0 0 32 32">
<path d="M28.865 21.822l-4.525-0.517c-1.087-0.125-2.155 0.249-2.921 1.015l-3.278 3.278c-5.041-2.565-9.174-6.68-11.739-11.739l3.296-3.296c0.766-0.766 1.14-1.835 1.015-2.921l-0.517-4.489c-0.214-1.799-1.728-3.153-3.545-3.153h-3.082c-2.013 0-3.687 1.675-3.563 3.687 0.944 15.213 13.111 27.362 28.306 28.306 2.013 0.125 3.687-1.55 3.687-3.563v-3.082c0.018-1.799-1.336-3.313-3.135-3.527z"></path>
</symbol>
<symbol id="icon-name" viewBox="0 0 32 32">
<path fill="#4d5ae5" style="fill: var(--color2, #4d5ae5)" d="M16 16c4.42 0 8-3.58 8-8s-3.58-8-8-8c-4.42 0-8 3.58-8 8s3.58 8 8 8zM16 20c-5.34 0-16 2.68-16 8v2c0 1.1 0.9 2 2 2h28c1.1 0 2-0.9 2-2v-2c0-5.32-10.66-8-16-8z"></path>
</symbol>
<symbol id="icon-x" viewBox="0 0 32 32">
<path d="M32 3.223l-3.223-3.223-12.777 12.777-12.777-12.777-3.223 3.223 12.777 12.777-12.777 12.777 3.223 3.223 12.777-12.777 12.777 12.777 3.223-3.223-12.777-12.777 12.777-12.777z"></path>
</symbol>
</defs>
</svg>

<svg xmlns="http://www.w3.org/2000/svg" aria-hidden="true" style="position:absolute;width:0;height:0;overflow:hidden">
  <defs>
    <symbol id="icon-icon-fly" viewBox="0 0 32 32">
      <path fill="#fff" d="m32 2.667-32 15 10.227 3.156L26 8.5 14.002 21.988l.01.003-.012-.003v7.345l5.735-5.576L27 25.999l5-23.333z" style="fill:var(--color1, #fff)"/>
    </symbol>
    <symbol id="icon-email" viewBox="0 0 32 32">
      <path d="M28 4H4a2.996 2.996 0 0 0-2.985 3L1 25c0 1.65 1.35 3 3 3h24c1.65 0 3-1.35 3-3V7c0-1.65-1.35-3-3-3zm-.6 6.375-10.605 6.63c-.48.3-1.11.3-1.59 0L4.6 10.375c-.375-.24-.6-.645-.6-1.08C4 8.29 5.095 7.69 5.95 8.215L16 14.5l10.05-6.285c.855-.525 1.95.075 1.95 1.08 0 .435-.225.84-.6 1.08z"/>
    </symbol>
    <symbol id="icon-tel" viewBox="0 0 32 32">
      <path d="m28.865 21.822-4.525-.517a3.543 3.543 0 0 0-2.921 1.015l-3.278 3.278A26.8 26.8 0 0 1 6.402 13.859l3.296-3.296a3.545 3.545 0 0 0 1.015-2.921l-.517-4.489A3.566 3.566 0 0 0 6.651 0H3.569C1.556 0-.118 1.675.006 3.687.95 18.9 13.117 31.049 28.312 31.993c2.013.125 3.687-1.55 3.687-3.563v-3.082c.018-1.799-1.336-3.313-3.135-3.527z"/>
    </symbol>
    <symbol id="icon-name" viewBox="0 0 32 32">
      <path fill="#4d5ae5" d="M16 16c4.42 0 8-3.58 8-8s-3.58-8-8-8-8 3.58-8 8 3.58 8 8 8zm0 4c-5.34 0-16 2.68-16 8v2c0 1.1.9 2 2 2h28c1.1 0 2-.9 2-2v-2c0-5.32-10.66-8-16-8z" style="fill:var(--color2, #4d5ae5)"/>
    </symbol>
    <symbol id="icon-x" viewBox="0 0 32 32">
      <path d="M32 3.223 28.777 0 16 12.777 3.223 0 0 3.223 12.777 16 0 28.777 3.223 32 16 19.223 28.777 32 32 28.777 19.223 16 32 3.223z"/>
    </symbol>
  </defs>
</svg>
